static/assets/images/protocols/compound-mono.svg

<svg width="241" height="308" viewBox="0 0 241 308" fill="none" xmlns="http://www.w3.org/2000/svg">
<path fill-rule="evenodd" clip-rule="evenodd" d="M12.355 240.043C4.69082 235.351 0 227.016 0 218.041V167.932C0 161.983 4.84461 157.162 10.7914 157.188C12.6883 157.188 14.5595 157.7 16.2 158.649L129.215 224.58C135.828 228.427 139.904 235.504 139.904 243.172V295.075C139.93 302.204 134.162 308 127.036 308C124.653 308 122.294 307.333 120.269 306.102L12.355 240.043ZM180.814 144.93C187.427 148.776 191.477 155.88 191.503 163.522V268.867C191.503 271.97 189.837 274.842 187.12 276.355L162.384 290.28C162.076 290.459 161.743 290.588 161.384 290.69V232.196C161.384 224.631 157.411 217.605 150.901 213.707L51.6502 154.315V88.282C51.6502 82.3326 56.4948 77.5115 62.4416 77.5372C64.3384 77.5372 66.2096 78.05 67.8501 78.9989L180.814 144.93ZM230.285 67.1257C236.924 70.9723 241 78.0757 241 85.7432V239.607C240.974 242.762 239.231 245.659 236.463 247.172L213.009 259.841V152.725C213.009 145.16 209.036 138.16 202.576 134.262L101.122 73.3828V10.7601C101.122 8.86248 101.634 6.99046 102.557 5.34925C105.556 0.220441 112.144 -1.52335 117.27 1.45135L230.285 67.1257Z" fill="black"/>
</svg>

<svg xmlns="http://www.w3.org/2000/svg" fill="none" viewBox="0 0 241 308"><path fill="#000" fill-rule="evenodd" d="M12.355 240.043C4.691 235.351 0 227.016 0 218.041v-50.109c0-5.949 4.845-10.77 10.791-10.744 1.897 0 3.768.512 5.409 1.461l113.015 65.931a21.5 21.5 0 0 1 10.689 18.592v51.903c.026 7.129-5.742 12.925-12.868 12.925-2.383 0-4.742-.667-6.767-1.898zm168.459-95.113c6.613 3.846 10.663 10.95 10.689 18.592v105.345a8.56 8.56 0 0 1-4.383 7.488l-24.736 13.925a4.3 4.3 0 0 1-1 .41v-58.494a21.55 21.55 0 0 0-10.483-18.489l-99.25-59.392V88.282c0-5.95 4.844-10.77 10.79-10.745 1.897 0 3.769.513 5.41 1.462zm49.471-77.804A21.52 21.52 0 0 1 241 85.743v153.864a8.72 8.72 0 0 1-4.537 7.565l-23.454 12.669V152.725a21.57 21.57 0 0 0-10.433-18.463l-101.454-60.88V10.76c0-1.898.512-3.77 1.435-5.41 2.999-5.13 9.587-6.873 14.713-3.899z" clip-rule="evenodd"/></svg>
